X: 1753
T: Norm McConnell's Mazurka
B: australian traditional tunes wiki
M:3/4
L:1/8
R: Mazurka
Q: 1/4=100
K:D
V:1 
A>d|"D"f2f>e d>B|A2A2(3BcB|"A"A2A2(3BcB|"D"A2A2A>d|
"D"f2f>e d>B|A2A2(3BcB|"A"A2A2B>c|"D"d2d2d>e||
"D"f2f2 e>f|"G"g2g2f>g|"D"a2a>g f>e|"A"e2e2d>e|
"D"f2f2e>f|"G"g2g2f>g|"D"a2a>g f>e|"D"d4:|
% abcbook-tune_id 6342d53ac74ae42fc605d07b


% abcbook-boost 0
% abcbook-tablature 
% abcbook-transpose 
% abcbook-lastupdated 1665324381836
% abcbook-soundfonts 
% abcbook-repeats 1
% NFF Book 2020

